Sources/FrostedUI/Resources/Icons.xcassets/volumeOff12.imageset/volume-off-12.svg

<svg width="12" height="12" viewBox="0 0 12 12" fill="none" xmlns="http://www.w3.org/2000/svg" data-fui-icon="true">
  <path
    d="M5.10156 1.4668C5.87465 0.975917 6.93737 1.52128 6.9375 2.48535V9.51465C6.9374 10.5429 5.72822 11.0943 4.95117 10.4209L3.30664 8.99609C3.17028 8.87793 2.99586 8.8125 2.81543 8.8125H2.0625C1.23407 8.8125 0.5625 8.14093 0.5625 7.3125V4.6875C0.562527 3.8591 1.23409 3.1875 2.0625 3.1875H2.81543C2.99587 3.1875 3.17028 3.12208 3.30664 3.00391L4.95117 1.5791L5.10156 1.4668ZM4.28906 4.1377C3.87998 4.49223 3.35676 4.6875 2.81543 4.6875H2.0625V7.3125H2.81543C3.35675 7.3125 3.87999 7.50778 4.28906 7.8623L5.4375 8.85742V3.1416L4.28906 4.1377ZM10.3447 4.34473C10.6376 4.05187 11.1124 4.05187 11.4053 4.34473C11.6982 4.63761 11.6981 5.11238 11.4053 5.40527L10.8105 6L11.4053 6.59473C11.6982 6.88761 11.6981 7.36238 11.4053 7.65527C11.1124 7.94817 10.6376 7.94817 10.3447 7.65527L9.75 7.06055L9.15527 7.65527C8.86238 7.94817 8.38762 7.94817 8.09473 7.65527C7.80186 7.36238 7.80184 6.88761 8.09473 6.59473L8.68945 6L8.09473 5.40527C7.80186 5.11238 7.80184 4.63761 8.09473 4.34473C8.38761 4.05187 8.86239 4.05187 9.15527 4.34473L9.75 4.93945L10.3447 4.34473Z"
    fill="currentColor"
  />
</svg>

<svg xmlns="http://www.w3.org/2000/svg" width="12" height="12" fill="none" data-fui-icon="true" viewBox="0 0 12 12"><path fill="currentColor" d="M5.102 1.467c.773-.491 1.835.054 1.835 1.018v7.03c0 1.028-1.209 1.58-1.986.906L3.307 8.996a.75.75 0 0 0-.492-.184h-.752a1.5 1.5 0 0 1-1.5-1.5V4.688a1.5 1.5 0 0 1 1.5-1.5h.752a.75.75 0 0 0 .492-.183L4.95 1.579zm-.813 2.67a2.25 2.25 0 0 1-1.474.55h-.752v2.625h.752a2.25 2.25 0 0 1 1.474.55l1.149.995V3.142zm6.056.208a.75.75 0 0 1 1.06 1.06L10.811 6l.594.595a.75.75 0 1 1-1.06 1.06l-.595-.594-.595.594a.75.75 0 1 1-1.06-1.06L8.689 6l-.594-.595a.75.75 0 1 1 1.06-1.06l.595.594z"/></svg>
